X: 1
T: String Quartet in D Major opus 50 no 6 mvt 3
C: Franz Joseph Haydn
%%abc-version 2.0
%%abcx-abcm2ps-target-version 5.9.1 (29 Sep 2008)
%%abc-creator hum2abc beta
%%abcx-conversion-date 2021/02/14 14:38:15
%%abc-copyright Copyright (c) 1994, 2000 Center for Computer Assisted Research in the Humanities
%%abc-edited-by Frances Bennion
%%abcx-initial-encoding-date 1997/04/15
%%gracespace 0 6 6
%%humdrum-veritas 847186015
%%humdrum-veritas-data 349399359
%%linebreak <none>
%%barnumbers 0
L: 1/4
M: 3/4
N: Derived from op50n6-03.krn
Q: "Menuetto: Allegretto"
%%staves [1 2 3 4]
V: 1
V: 2
V: 3 clef=alto
V: 4 clef=bass
K: D
[V:1]z2 a3//a// [I:setbarnb1] |
[V:2]z2 A/z/ |
[V:3]z2 F/z/ |
[V:4]z2 z |
[V:1]a2 d' |
[V:2]F/z/ D/z/ A, |
[V:3]D/z/ A,/z/ F, |
[V:4]D, z2 |
[V:1]d' c'/<b/ ^a//b3// |
[V:2]B, z2 |
[V:3]G, z2 |
[V:4]G,, z2 |
[V:1]a//<g//z/ f//<e//z/ d//<c//z/ |
[V:2]C z2 |
[V:3]G, z2 |
[V:4]A,, z2 |
[V:1]B//<A//z/ G//<F//z/ E//<D//z/ |
[V:2]D z2 |
[V:3]F, z2 |
[V:4]D, z2 |
[V:1]=C3 |
[V:2]A,3 |
[V:3]D,3- |
[V:4]F,,3 |
[V:1]B, ^D//<E//z/ F//<G//z/ |
[V:2]B, z2 |
[V:3]D, z2 |
[V:4]G,, z2 |
[V:1]^A//<B//z3/ C3//C// |
[V:2]z2 E3//E// |
[V:3]z2 G,3//G,// |
[V:4]z2 A,,3//A,,// |
[V:1]D z F3//F// |
[V:2]D z F3//F// |
[V:3]F, z F3//F// |
[V:4]D,, z F,3//F,// |
[V:1]F2 ^A3//A// |
[V:2]F2 G3//G// |
[V:3]F2 E3//E// |
[V:4]F,3- |
[V:1]^A B c |
[V:2]G F E |
[V:3]E D C |
[V:4]F,3- |
[V:1]e3 |
[V:2]G3 |
[V:3]^A,3 |
[V:4]F,3 |
[V:1]^d z =c'3//c'// |
[V:2]F z ^d3//d// |
[V:3]A, z A3//A// |
[V:4]B,, z2 |
[V:1]=c' z ^d3//d// |
[V:2]^d z =c3//c// |
[V:3]A z A3//A// |
[V:4]z2 B,3//B,// |
[V:1]^d e f |
[V:2]=c B A |
[V:3]A G F |
[V:4]B,3- |
[V:1]a3 |
[V:2]=c3 |
[V:3]^D3 |
[V:4]B,3 |
[V:1]^g z =f'3//f'// |
[V:2]B z ^g3//g// |
[V:3]D z d3//d// |
[V:4]E, z2 |
[V:1]=f' z e'3//e'// |
[V:2]^g z a3//a// |
[V:3]d z c3//c// |
[V:4]z3 |
[V:1]e' z ^G//A3// |
[V:2]a z ^G,//A,3// |
[V:3]c z ^G,//A,3// |
[V:4]z2 ^G,,//A,,3// |
[V:1]B/<A/ d/<c/ f//e3// |
[V:2]B,/<A,/ D/<C/ F//E3// |
[V:3]B,/<A,/ D/<C/ F//E3// |
[V:4]B,,/<A,,/ D,/<C,/ F,//E,3// |
[V:1]a2 a |
[V:2]c2 c |
[V:3]e2 e |
[V:4]G, z ^G,//A,3// |
[V:1]a a a |
[V:2]c c c |
[V:3]e e e |
[V:4]B,/<A,/ D/<C/ F//E3// |
[V:1]a z a3//a// |
[V:2]c z c3//c// |
[V:3]e z e3//e// |
[V:4]G z G3//G// |
[V:1]a z b//<a//z/ |
[V:2]c z d//<c//z/ |
[V:3]e z e |
[V:4]G z G |
[V:1]b//<a//z3/ a3//a// |
[V:2]d//<c//z >A z/ |
[V:3]e z F/z/ |
[V:4]G z2 |
[V:1]a2 d'- |
[V:2]F/z/ D/z/ A, |
[V:3]D/z/ A,/z/ F, |
[V:4]D, z2 |
[V:1]d' c'/<b/ ^a//b3// |
[V:2]B, z2 |
[V:3]G, z2 |
[V:4]G,, z2 |
[V:1]a//<g//z/ f//<e//z/ d//<c//z/ |
[V:2]C z2 |
[V:3]G, z2 |
[V:4]A,, z2 |
[V:1]B//<A//z/ G//<F//z/ E//<D//z/ |
[V:2]D z2 |
[V:3]F, z2 |
[V:4]D, z2 |
[V:1]=C3 |
[V:2]A,3 |
[V:3]D,3- |
[V:4]F,,3 |
[V:1]B, ^D//<E//z/ F//<G//z/ |
[V:2]B, z2 |
[V:3]D, z2 |
[V:4]G,, z2 |
[V:1]^A//<B//z3/ C3//C// |
[V:2]z2 E3//E// |
[V:3]z2 G,3//G,// |
[V:4]z2 A,,3//A,,// |
[V:1]D z f//e//f//g// |
[V:2]D z F |
[V:3]F, z D |
[V:4]D,, z D |
[V:1]a a a |
[V:2]E D C |
[V:3]C B, A, |
[V:4]C B, A, |
[V:1]a a a- |
[V:2]B, C ^D |
[V:3]B,2 B,- |
[V:4]G,2 G,, |
[V:1]a g f |
[V:2]E2 ^D |
[V:3]B,2 =C |
[V:4]G,2 A, |
[V:1]e z e//^d//e//f// |
[V:2]E z G |
[V:3]B, z2 |
[V:4]G, z E |
[V:1]g g g |
[V:2]F E D |
[V:3]z3 |
[V:4]D C B, |
[V:1]g g g- |
[V:2]C2 e- |
[V:3]z2 A- |
[V:4]_B, A, C |
[V:1]g f e |
[V:2]e d c |
[V:3]A2 A,- |
[V:4]D2 G, |
[V:1]d z d//c//d//e// |
[V:2]d z2 |
[V:3]A, z2 |
[V:4]F, z2 |
[V:1]f f f- |
[V:2]d d d- |
[V:3]B,3 |
[V:4]B,,3 |
[V:1]f e d- |
[V:2]d c B- |
[V:3]F,2 =F, |
[V:4]F,,2 =F,, |
[V:1]d c B |
[V:2]B A ^G |
[V:3]E,2 D |
[V:4]E,,2 E,, |
[V:1]A z c//B//c//d// |
[V:2]A z2 |
[V:3]C z2 |
[V:4]A,, z2 |
[V:1]e e a- |
[V:2]E3 |
[V:3]C3 |
[V:4]A,,3- |
[V:1]a ^g b- |
[V:2]=F3 |
[V:3]D3 |
[V:4]A,,3- |
[V:1]b a d'- |
[V:2]E2 A |
[V:3]C2 =F |
[V:4]A,,3- |
[V:1]d' c' =c'- |
[V:2]G2 F |
[V:3]E2 ^D |
[V:4]A,,3- |
[V:1]c' b _b- |
[V:2]G2 =F |
[V:3]E2 D |
[V:4]A,,3- |
[V:1]b a ^g- |
[V:2]E2 =F |
[V:3]C2 D |
[V:4]A,,3- |
[V:1]g a f- |
[V:2]E2 _E |
[V:3]C2 =C |
[V:4]A,,3- |
[V:1]f g g- |
[V:2]D3 |
[V:3]B,3 |
[V:4]A,,3- |
[V:1]g g g- |
[V:2]^D3 |
[V:3]^B,3 |
[V:4]A,,3- |
[V:1]g g g- |
[V:2]E3- |
[V:3]C3- |
[V:4]A,,3 |
[V:1]g g g |
[V:2]E3- |
[V:3]C3- |
[V:4]_B,,3 |
[V:1]g2 f//e//f//g// |
[V:2]E2 F |
[V:3]C2 D |
[V:4]A,,2 D |
[V:1]a a a |
[V:2]E D C |
[V:3]C B, A, |
[V:4]C B, A, |
[V:1]a a a- |
[V:2]B, C ^D |
[V:3]B,2 B,- |
[V:4]G,2 G,, |
[V:1]a g f |
[V:2]E2 ^D |
[V:3]B,2 =C |
[V:4]G,2 A, |
[V:1]e z e//^d//e//f// |
[V:2]E z G |
[V:3]B, z2 |
[V:4]G, z E |
[V:1]g g g |
[V:2]F E D |
[V:3]z3 |
[V:4]D C B, |
[V:1]g g g- |
[V:2]C2 e- |
[V:3]z2 A- |
[V:4]_B, A, C |
[V:1]g f e |
[V:2]e d c |
[V:3]A2 A,- |
[V:4]D2 G, |
[V:1]d z f//e//f//g// |
[V:2]d z d//c//d//e// |
[V:3]A, z2 |
[V:4]F, z2 |
[V:1]a a b//^a//b//c'// |
[V:2]f f g//f//g//a// |
[V:3]z3 |
[V:4]z3 |
[V:1]d' d' z |
[V:2]b b z |
[V:3]z3 |
[V:4]z3 |
[V:1]z3 |
[V:2]z3 |
[V:3]z3 |
[V:4]z3 |
[V:1]z2 g//f//g//a// |
[V:2]z2 e//^d//e//f// |
[V:3]z3 |
[V:4]z3 |
[V:1]b b b- |
[V:2]g g g- |
[V:3]E3 |
[V:4]E,3 |
[V:1]b a g- |
[V:2]g f e- |
[V:3]B,2 _B, |
[V:4]B,,2 _B,, |
[V:1]g f e |
[V:2]e d c |
[V:3]A,2 G, |
[V:4]A,,2 A,, |
[V:1]d z2 |
[V:2]d z2 |
[V:3]F, z F//E//F//G// |
[V:4]D, z D,//C,//D,//E,// |
[V:1]z2 f//e//f//g// |
[V:2]z2 d//c//d//e// |
[V:3]A A z |
[V:4]F, F, z |
[V:1]a a z |
[V:2]f f z |
[V:3]z2 B//^A//B//c// |
[V:4]z2 G,//F,//G,//A,// |
[V:1]z2 b//^a//b//c'// |
[V:2]z2 g//f//g//a// |
[V:3]d d z |
[V:4]B, B, z |
[V:1]d' d' z |
[V:2]b b z |
[V:3]z3 |
[V:4]z3 |
[V:1]z3 |
[V:2]z3 |
[V:3]z3 |
[V:4]z3 |
[V:1]z2 g//f//g//a// |
[V:2]z2 e//^d//e//f// |
[V:3]z3 |
[V:4]z3 |
[V:1]b b b- |
[V:2]g g g- |
[V:3]E3 |
[V:4]E,3 |
[V:1]b a g- |
[V:2]g f e- |
[V:3]B,2 _B, |
[V:4]B,,2 _B,, |
[V:1]g f g- |
[V:2]e ^d e- |
[V:3]A,2 ^A, |
[V:4]A,,2 ^A,, |
[V:1]g f g- |
[V:2]e ^d e- |
[V:3]B,2 ^B, |
[V:4]B,,2 ^B,, |
[V:1]g f e- |
[V:2]e d B- |
[V:3]C D G- |
[V:4]C, D, G, |
[V:1]e d d- |
[V:2]B A A- |
[V:3]G F F- |
[V:4]A,3 |
[V:1]d c c |
[V:2]A G G |
[V:3]F E E |
[V:4]A,,3 |
[V:1]d z2 |]
[V:2]F z2 |]
[V:3]D z2 |]
[V:4]D, z2 |]

